icons/1_Primary/deSEC.svg

<svg xmlns="http://www.w3.org/2000/svg" width="1024" height="1024" fill="none">
   <g clip-path="url(#a)">
      <path fill="#56595B" d="M512 1024c282.77 0 512-229.23 512-512S794.77 0 512 0 0 229.23 0 512s229.23 512 512 512Z"/>
      <path fill="#fff" d="M582.07 253.75c-144.42-38.7-292.87 47.01-331.57 191.43 0 0 26.58-26.49 43.58-26.49s43.58 26.49 43.58 26.49 26.58-26.49 43.58-26.49 43.58 26.49 43.58 26.49 26.58-26.49 43.58-26.49c11.88 0 28.4 12.91 37.3 20.7h-1.17v269.66c0 40.74 23.89 70.49 53.34 70.49 29.45 0 53.33-29.79 53.33-70.53 0 0-4.7-4.47-7.67-4.53-2.8-.05-7.39 4-7.39 4 0 29.24-17.14 56.73-38.27 56.73-21.13 0-38.27-27.49-38.27-56.73V439.39h-1.34c8.9-7.79 25.43-20.7 37.3-20.7 17 0 43.58 26.49 43.58 26.49s26.58-26.49 43.58-26.49 43.58 26.49 43.58 26.49 26.58-26.49 43.58-26.49 43.58 26.49 43.58 26.49c-25.03-93.42-98.01-166.4-191.43-191.43h.04Z"/>
   </g>
   <defs>
      <clipPath id="a">
         <path fill="#fff" d="M0 0h1024v1024H0z"/>
      </clipPath>
   </defs>
</svg>

<svg width="1024" height="1024" viewBox="0 0 1024 1024" fill="none" xmlns="http://www.w3.org/2000/svg">
<g clip-path="url(#clip0_2_1986)">
<path d="M512 1024C794.77 1024 1024 794.77 1024 512C1024 229.23 794.77 0 512 0C229.23 0 0 229.23 0 512C0 794.77 229.23 1024 512 1024Z" fill="#56595B"/>
<path d="M582.07 253.75C437.65 215.05 289.2 300.76 250.5 445.18C250.5 445.18 277.08 418.69 294.08 418.69C311.08 418.69 337.66 445.18 337.66 445.18C337.66 445.18 364.24 418.69 381.24 418.69C398.24 418.69 424.82 445.18 424.82 445.18C424.82 445.18 451.4 418.69 468.4 418.69C480.28 418.69 496.8 431.6 505.7 439.39H504.53V709.05C504.53 749.79 528.42 779.54 557.87 779.54C587.32 779.54 611.2 749.75 611.2 709.01C611.2 709.01 606.5 704.54 603.53 704.48C600.73 704.43 596.14 708.48 596.14 708.48C596.14 737.72 579 765.21 557.87 765.21C536.74 765.21 519.6 737.72 519.6 708.48V439.39H518.26C527.16 431.6 543.69 418.69 555.56 418.69C572.56 418.69 599.14 445.18 599.14 445.18C599.14 445.18 625.72 418.69 642.72 418.69C659.72 418.69 686.3 445.18 686.3 445.18C686.3 445.18 712.88 418.69 729.88 418.69C746.88 418.69 773.46 445.18 773.46 445.18C748.43 351.76 675.45 278.78 582.03 253.75H582.07Z" fill="white"/>
</g>
<defs>
<clipPath id="clip0_2_1986">
<rect width="1024" height="1024" fill="white"/>
</clipPath>
</defs>
</svg>
